assets/svg/icon_post_camerapermission.svg

<svg width="37" height="37" viewBox="0 0 37 37" fill="none" xmlns="http://www.w3.org/2000/svg">
    <path fill-rule="evenodd" clip-rule="evenodd"
        d="M22.0556 32.5H14.9444H14.9444C9.95079 32.5 7.45398 32.5 5.66039 31.356C4.88393 30.8608 4.21725 30.2244 3.69844 29.4833C2.5 27.7712 2.5 25.3879 2.5 20.6212C2.5 15.8546 2.5 13.4712 3.69844 11.7592C4.21725 11.018 4.88393 10.3816 5.66039 9.88639C6.81288 9.15132 8.25574 8.88858 10.4648 8.79467C11.519 8.79467 12.4266 8.03217 12.6333 7.04545C12.9434 5.56538 14.3049 4.5 15.8861 4.5H21.1139C22.6951 4.5 24.0566 5.56538 24.3667 7.04545C24.5734 8.03217 25.481 8.79467 26.5352 8.79467C28.7443 8.88858 30.1871 9.15132 31.3396 9.88639C32.1161 10.3816 32.7827 11.018 33.3016 11.7592C34.5 13.4712 34.5 15.8546 34.5 20.6212C34.5 25.3879 34.5 27.7712 33.3016 29.4833C32.7827 30.2244 32.1161 30.8608 31.3396 31.356C29.546 32.5 27.0492 32.5 22.0556 32.5H22.0556ZM28.1025 14.058C27.3661 14.058 26.7691 14.655 26.7691 15.3914C26.7691 16.1277 27.3661 16.7247 28.1025 16.7247H29.7025C30.4388 16.7247 31.0358 16.1277 31.0358 15.3914C31.0358 14.655 30.4388 14.058 29.7025 14.058H28.1025ZM18.5009 24.7242C21.1519 24.7242 23.3009 22.6349 23.3009 20.0576C23.3009 17.4802 21.1519 15.3909 18.5009 15.3909C15.8499 15.3909 13.7009 17.4802 13.7009 20.0576C13.7009 22.6349 15.8499 24.7242 18.5009 24.7242Z"
        fill="white" />
</svg>

<svg xmlns="http://www.w3.org/2000/svg" width="37" height="37" fill="none"><path fill="#fff" fill-rule="evenodd" d="M22.056 32.5h-7.112c-4.993 0-7.49 0-9.284-1.144a7 7 0 0 1-1.962-1.873C2.5 27.771 2.5 25.388 2.5 20.621c0-4.766 0-7.15 1.198-8.862A7 7 0 0 1 5.66 9.886c1.153-.735 2.596-.997 4.805-1.091a2.234 2.234 0 0 0 2.168-1.75c.31-1.48 1.672-2.545 3.253-2.545h5.228c1.581 0 2.943 1.065 3.253 2.545a2.234 2.234 0 0 0 2.168 1.75c2.21.094 3.652.356 4.805 1.091a7 7 0 0 1 1.962 1.873c1.198 1.712 1.198 4.096 1.198 8.862 0 4.767 0 7.15-1.198 8.862a7 7 0 0 1-1.962 1.873C29.546 32.5 27.05 32.5 22.056 32.5m6.046-18.442a1.333 1.333 0 0 0 0 2.667h1.6a1.333 1.333 0 0 0 0-2.667zm-9.601 10.666c2.65 0 4.8-2.09 4.8-4.666 0-2.578-2.15-4.667-4.8-4.667s-4.8 2.09-4.8 4.667 2.149 4.666 4.8 4.666" clip-rule="evenodd"/></svg>
